!!!OTL: Ach Gott in deinem hoechsten Thron
!!!ARE: Europa, Mitteleuropa, Deutschland
!!!SCT: A0390A
!!!YEM: Copyright 1995, estate of Helmut Schaffrath.
**kern
*ICvox
*Ivox
!! Mixed meters:  4/2; 6/2
*M4/2
*k[]
*C:
{1cc
=1
1cc
1cc
=2
1b
1cc
=3
1dd
1cc
=4
1b
2r}
{2g
=5
*M6/2
2cc
2dd
1ee
1dd
=6
1cc
0a
=7
0g
2r}
{2dd
=8
1cc
2cc
1b
2g
=9
1a
2g
1e}
{2a
=10
1a
2a
1g
2e
=11
1g
2e
1c}
{2c
=12
*M4/2
2g
2a
2b
2cc
=13
*M6/2
2dd
2cc
2b
1cc}
{2b
=14
2.cc
4b
4a
4g
1cc
4b
4a
=15
*M4/2
2.g
4f
2e
2d
=16
1c}
==
!!!AGN: Romanze, Ballade, Lied, religioeses Lied
!! Melodie hs. aus dem 16. Jh.
!!!ONB: ESAC (Essen Associative Code) Database: ALTDEU
!!!AMT: irregular
!!!AIN: vox
!!!EED: Helmut Schaffrath
!!!EEV: 1.0
*-
